Hatter-kde-dark/actions/16/view-object-histogram-logarithmic.svg

<?xml version="1.0" encoding="UTF-8"?>
<svg viewBox="0 0 16 16" xmlns="http://www.w3.org/2000/svg">
 <defs id="defs3051">
  <style id="current-color-scheme" type="text/css">.ColorScheme-Text {
        color:#dedede;
      }</style>
 </defs>
 <path class="ColorScheme-Text" d="m2 2v12h1 11v-1h-1v-2-3h-1v-2h-1v3h-1v-2h-1v-2h-1v-3h-1v2h-1v2h-1v1h-1v1h-1v-6h-1z" fill="currentColor"/>
</svg>

<svg xmlns="http://www.w3.org/2000/svg" viewBox="0 0 16 16">
  <defs id="defs3051">
    <style type="text/css" id="current-color-scheme">
      .ColorScheme-Text {
        color:#dedede;
      }
      </style>
  </defs>
 <path style="fill:currentColor;fill-opacity:1;stroke:none" 
       d="M 2 2 L 2 14 L 3 14 L 14 14 L 14 13 L 13 13 L 13 11 L 13 8 L 12 8 L 12 6 L 11 6 L 11 9 L 10 9 L 10 7 L 9 7 L 9 5 L 8 5 L 8 2 L 7 2 L 7 4 L 6 4 L 6 6 L 5 6 L 5 7 L 4 7 L 4 8 L 3 8 L 3 2 L 2 2 z "
     class="ColorScheme-Text"
     />
</svg>
